symbols/currency/dollar.svg

<?xml version="1.0" encoding="iso-8859-1"?>
<svg version="1.1" id="Layer1" xmlns="http://www.w3.org/2000/svg" xmlns:xlink="http://www.w3.org/1999/xlink" x="0px" y="0px" viewBox="0 0 512 512" style="enable-background:new 0 0 512 512;" xml:space="preserve">
	<g>
		<g>
			<path d="M256,0C114.843,0,0,114.843,0,256s114.843,256,256,256s256-114.843,256-256S397.157,0,256,0z M265.722,242.43
			c34.571,24.766,73.756,52.836,73.756,97.049c0,40.316-28.724,74.04-66.783,81.795v18.379c0,9.223-7.473,16.696-16.696,16.696
			c-9.223,0-16.696-7.473-16.696-16.696v-18.379c-38.058-7.756-66.783-41.48-66.783-81.795c0-9.223,7.473-16.696,16.696-16.696
			s16.696,7.473,16.696,16.696c0,27.619,22.468,50.087,50.087,50.087s50.087-22.468,50.087-50.087
			c0-27.06-29.055-47.87-59.809-69.908c-34.571-24.766-73.756-52.836-73.756-97.049c0-40.316,28.724-74.04,66.783-81.795V72.348
			c0-9.223,7.473-16.696,16.696-16.696c9.223,0,16.696,7.473,16.696,16.696v18.379c38.058,7.756,66.783,41.48,66.783,81.795
			c0,9.223-7.473,16.696-16.696,16.696c-9.223,0-16.696-7.473-16.696-16.696c0-27.619-22.468-50.087-50.087-50.087
			s-50.087,22.468-50.087,50.087C205.913,199.582,234.968,220.392,265.722,242.43z" />
		</g>
	</g>
</svg>

<svg width="512" height="512" viewBox="0 0 512 512" fill="none" xmlns="http://www.w3.org/2000/svg">
    <g clip-path="url(#clip0_576_10516)">
        <circle cx="256.5" cy="255.5" r="206.5" fill="#D9D9D9" />
        <path fill="black" d="M256 0C114.843 0 0 114.843 0 256C0 397.157 114.843 512 256 512C397.157 512 512 397.157 512 256C512 114.843 397.157 0 256 0ZM265.722 242.43C300.293 267.196 339.478 295.266 339.478 339.479C339.478 379.795 310.754 413.519 272.695 421.274V439.653C272.695 448.876 265.222 456.349 255.999 456.349C246.776 456.349 239.303 448.876 239.303 439.653V421.274C201.245 413.518 172.52 379.794 172.52 339.479C172.52 330.256 179.993 322.783 189.216 322.783C198.439 322.783 205.912 330.256 205.912 339.479C205.912 367.098 228.38 389.566 255.999 389.566C283.618 389.566 306.086 367.098 306.086 339.479C306.086 312.419 277.031 291.609 246.277 269.571C211.706 244.805 172.521 216.735 172.521 172.522C172.521 132.206 201.245 98.482 239.304 90.727V72.348C239.304 63.125 246.777 55.652 256 55.652C265.223 55.652 272.696 63.125 272.696 72.348V90.727C310.754 98.483 339.479 132.207 339.479 172.522C339.479 181.745 332.006 189.218 322.783 189.218C313.56 189.218 306.087 181.745 306.087 172.522C306.087 144.903 283.619 122.435 256 122.435C228.381 122.435 205.913 144.903 205.913 172.522C205.913 199.582 234.968 220.392 265.722 242.43Z" />
    </g>
    <defs>
        <clipPath id="clip0_576_10516">
            <rect fill="white" width="512" height="512" />
        </clipPath>
    </defs>
</svg>
